Newaita-dark/apps/32/google-play-music-desktop-player.svg

<svg height="32" viewBox="0 0 32 32" width="32" xmlns="http://www.w3.org/2000/svg" xmlns:xlink="http://www.w3.org/1999/xlink"><linearGradient id="a"><stop offset="0" stop-opacity=".313726"/><stop offset=".222222" stop-opacity=".27451"/><stop offset="1" stop-opacity="0"/></linearGradient><radialGradient id="b" cx="450.908936" cy="189.579361" gradientTransform="matrix(.00000017 -.0781325 -.140638 -.0000001 44.523152 63.595329)" gradientUnits="userSpaceOnUse" r="21.166656" xlink:href="#a"/><radialGradient id="c" cx="450.908936" cy="189.579361" gradientTransform="matrix(-.00000017 .0781325 .140638 .0000001 -12.770119 -7.527482)" gradientUnits="userSpaceOnUse" r="21.166656" xlink:href="#a"/><radialGradient id="d" cx="450.908936" cy="189.579361" gradientTransform="matrix(-.00000017 -.0781325 .140638 -.0000001 -12.770119 63.595329)" gradientUnits="userSpaceOnUse" r="21.166656" xlink:href="#a"/><radialGradient id="e" cx="450.908936" cy="189.579361" gradientTransform="matrix(.00000017 .0781325 -.140638 .0000001 44.52315 -7.527483)" gradientUnits="userSpaceOnUse" r="21.166656" xlink:href="#a"/><linearGradient id="f" gradientTransform="matrix(.0133601 0 0 .062506 12.465386 13.438784)" gradientUnits="userSpaceOnUse" x1="255.323059" x2="255.323044" y1="233.5" y2="254.666656"><stop offset="0" stop-opacity=".27451"/><stop offset="1" stop-opacity="0"/></linearGradient><linearGradient id="g" gradientUnits="userSpaceOnUse" x1="254" x2="254" y1="-168.666672" y2="233.5"><stop offset="0" stop-color="#ff8a65"/><stop offset="1" stop-color="#ff7043"/></linearGradient><linearGradient id="h" gradientUnits="userSpaceOnUse" x1="15.8765102" x2="15.8765102" y1="5.54219847015" y2="25.3878368"><stop offset="0" stop-color="#ffd54f"/><stop offset="1" stop-color="#ffca28"/></linearGradient><linearGradient id="i" gradientUnits="userSpaceOnUse" x1="242.093745" x2="242.093745" y1="127.238003" y2="-52.678669"><stop offset="0" stop-color="#e0e0e0"/><stop offset="1" stop-color="#fafafa"/></linearGradient><path d="m18.191406 28.035156h2.648438v-1.324218h-2.648438zm0 0" fill="url(#b)"/><path d="m13.5625 28.035156h-2.648438v1.320313h2.648438zm0 0" fill="url(#c)"/><path d="m13.5625 28.035156h-2.648438v-1.324218h2.648438zm0 0" fill="url(#d)"/><path d="m18.191406 28.035156h2.648438v1.320313h-2.648438zm0 0" fill="url(#e)"/><path d="m13.5625 27.703125h4.628906v1.652344h-4.628906zm0 0" fill="url(#f)"/><path d="m253.975747-168.691922c111.051895 0 201.105795 90.0539 201.105795 201.105795s-90.0539 201.105796-201.105795 201.105796c-111.051896 0-201.043302-90.053901-201.043302-201.105796s89.991406-201.105795 201.043302-201.105795zm0 0" fill="url(#g)" stroke="#333" stroke-linecap="round" stroke-width="3" transform="matrix(.062506 0 0 .062506 0 13.438783)"/><path d="m15.875 28.035156c-6.960938 0-12.566406-5.605468-12.566406-12.570312 0-.039063 0-.082032 0-.121094.066406 6.902344 5.644531 12.445312 12.566406 12.445312s12.503906-5.542968 12.570312-12.445312v.121094c0 6.964844-5.605468 12.570312-12.570312 12.570312zm0 0" fill-opacity=".196078"/><path d="m15.875 2.894531c-6.960938 0-12.566406 5.605469-12.566406 12.570313v.125c.066406-6.90625 5.644531-12.449219 12.566406-12.449219s12.503906 5.542969 12.570312 12.449219c0-.042969 0-.082032 0-.125 0-6.964844-5.605468-12.570313-12.570312-12.570313zm0 0" fill="#fff" fill-opacity=".392157"/><path d="m15.875 2.800781c-7.011719 0-12.660156 5.652344-12.660156 12.664063 0 7.011718 5.648437 12.664062 12.660156 12.664062 7.015625 0 12.664062-5.652344 12.664062-12.664062 0-7.011719-5.648437-12.664063-12.664062-12.664063zm0 .1875c6.914062 0 12.476562 5.5625 12.476562 12.476563 0 6.914062-5.5625 12.476562-12.476562 12.476562-6.910156 0-12.472656-5.5625-12.472656-12.476562 0-6.914063 5.5625-12.476563 12.472656-12.476563zm0 0" fill="#212121"/><path d="m15.875 5.542969c5.480469 0 9.925781 4.441406 9.925781 9.921875 0 5.480468-4.445312 9.921875-9.925781 9.921875s-9.921875-4.441407-9.921875-9.921875c0-5.480469 4.441406-9.921875 9.921875-9.921875zm0 0" fill="url(#h)"/><path d="m210.354912-53.077963c-11.748878 0-21.185477 9.436599-21.185477 21.122983v137.986823c0 11.748878 9.436599 21.185477 21.185477 21.185477 10.561492 0 96.990738-57.931968 145.486107-87.304163 7.936742-5.249499 7.936742-10.561491 0-15.873484-48.495369-25.685047-129.612623-76.742672-145.486107-77.117636zm0 0" fill="url(#i)" stroke="#ccc" stroke-linecap="round" stroke-width="3" transform="matrix(.062506 0 0 .062506 0 13.438783)"/><path d="m13.148438 10.121094c-.734376 0-1.324219.589844-1.324219 1.320312v.277344c0-.734375.589843-1.324219 1.324219-1.324219.992187.027344 6.0625 3.214844 9.09375 4.824219.179687.117188.296874.238281.34375.355469.089843-.210938-.027344-.421875-.34375-.632813-3.03125-1.605468-8.101563-4.796875-9.09375-4.820312zm0 0" fill="#fff" fill-opacity=".996774"/><path d="m13.148438 10.027344c-.785157 0-1.417969.632812-1.417969 1.414062v8.625c0 .785156.632812 1.417969 1.417969 1.417969.125 0 .273437-.0625.496093-.167969.21875-.105468.5-.253906.824219-.4375.648438-.371094 1.480469-.882812 2.386719-1.449218 1.8125-1.136719 3.921875-2.5 5.4375-3.414063v-.003906h.003906c.257813-.171875.414063-.359375.414063-.574219 0-.210938-.15625-.398438-.414063-.574219h-.003906l-.003907-.003906c-1.515624-.800781-3.539062-2-5.3125-3.003906-.886718-.5-1.707031-.953125-2.375-1.28125-.332031-.164063-.625-.300781-.867187-.394531-.246094-.09375-.4375-.148438-.585937-.152344zm-.003907.1875c.101563 0 .285157.050781.519531.140625.238282.089843.527344.222656.855469.386719.660157.328124 1.480469.777343 2.363281 1.277343 1.769532 1 3.789063 2.195313 5.308594 3 .234375.160157.332032.300781.332032.417969 0 .121094-.097657.261719-.332032.417969-1.519531.917969-3.625 2.28125-5.433594 3.414062-.90625.570313-1.738281 1.078125-2.382812 1.445313-.320312.183594-.597656.332031-.8125.429687-.210938.101563-.375.152344-.414062.152344-.683594 0-1.230469-.546875-1.230469-1.230469v-8.625c0-.679687.546875-1.226562 1.226562-1.226562zm0 0" fill="#212121"/><path d="m15.875 5.625c-5.496094 0-9.921875 4.425781-9.921875 9.921875 0 .082031 0 .160156.003906.238281.136719-5.375 4.507813-9.664062 9.917969-9.664062 5.414062 0 9.785156 4.289062 9.921875 9.664062 0-.078125.003906-.15625.003906-.238281 0-5.496094-4.425781-9.921875-9.925781-9.921875zm0 0" fill-opacity=".235294"/><path d="m5.960938 15.796875c-.003907.109375-.007813.21875-.007813.328125 0 5.5 4.425781 9.925781 9.921875 9.925781 5.5 0 9.925781-4.425781 9.925781-9.925781 0-.109375-.003906-.21875-.007812-.328125-.171875 5.339844-4.53125 9.589844-9.917969 9.589844s-9.742188-4.25-9.914062-9.589844zm0 0" fill="#fff" fill-opacity=".392157"/><path d="m253.975747-126.320968c87.679127 0 158.797335 71.055714 158.797335 158.734841s-71.118208 158.734842-158.797335 158.734842c-87.679128 0-158.734842-71.055715-158.734842-158.734842s71.055714-158.734841 158.734842-158.734841zm0 0" fill="none" stroke="#333" stroke-linecap="round" stroke-width="3" transform="matrix(.062506 0 0 .062506 0 13.438783)"/><path d="m22.4375 15.78125c-.054688.050781-.117188.101562-.195312.152344-3.03125 1.835937-8.433594 5.457031-9.09375 5.457031-.734376 0-1.324219-.589844-1.324219-1.324219v.6875c0 .734375.589843 1.324219 1.324219 1.324219.660156.003906 6.0625-3.621094 9.09375-5.457031.421874-.277344.484374-.558594.195312-.839844zm0 0" fill-opacity=".235294"/></svg>

<?xml version="1.0" encoding="UTF-8"?>
<svg xmlns="http://www.w3.org/2000/svg" xmlns:xlink="http://www.w3.org/1999/xlink" width="32px" height="32px" viewBox="0 0 32 32" version="1.1">
<defs>
<radialGradient id="radial0" gradientUnits="userSpaceOnUse" cx="450.908936" cy="189.579361" fx="450.908936" fy="189.579361" r="21.166656" gradientTransform="matrix(0.00000017417,-0.0781325,-0.140638,-0.000000101539,44.523152,63.595329)">
<stop offset="0" style="stop-color:rgb(0%,0%,0%);stop-opacity:0.313726;"/>
<stop offset="0.222222" style="stop-color:rgb(0%,0%,0%);stop-opacity:0.27451;"/>
<stop offset="1" style="stop-color:rgb(0%,0%,0%);stop-opacity:0;"/>
</radialGradient>
<radialGradient id="radial1" gradientUnits="userSpaceOnUse" cx="450.908936" cy="189.579361" fx="450.908936" fy="189.579361" r="21.166656" gradientTransform="matrix(-0.00000017417,0.0781325,0.140638,0.000000101539,-12.770119,-7.527482)">
<stop offset="0" style="stop-color:rgb(0%,0%,0%);stop-opacity:0.313726;"/>
<stop offset="0.222222" style="stop-color:rgb(0%,0%,0%);stop-opacity:0.27451;"/>
<stop offset="1" style="stop-color:rgb(0%,0%,0%);stop-opacity:0;"/>
</radialGradient>
<radialGradient id="radial2" gradientUnits="userSpaceOnUse" cx="450.908936" cy="189.579361" fx="450.908936" fy="189.579361" r="21.166656" gradientTransform="matrix(-0.00000017417,-0.0781325,0.140638,-0.000000101539,-12.770119,63.595329)">
<stop offset="0" style="stop-color:rgb(0%,0%,0%);stop-opacity:0.313726;"/>
<stop offset="0.222222" style="stop-color:rgb(0%,0%,0%);stop-opacity:0.27451;"/>
<stop offset="1" style="stop-color:rgb(0%,0%,0%);stop-opacity:0;"/>
</radialGradient>
<radialGradient id="radial3" gradientUnits="userSpaceOnUse" cx="450.908936" cy="189.579361" fx="450.908936" fy="189.579361" r="21.166656" gradientTransform="matrix(0.00000017417,0.0781325,-0.140638,0.000000101539,44.52315,-7.527483)">
<stop offset="0" style="stop-color:rgb(0%,0%,0%);stop-opacity:0.313726;"/>
<stop offset="0.222222" style="stop-color:rgb(0%,0%,0%);stop-opacity:0.27451;"/>
<stop offset="1" style="stop-color:rgb(0%,0%,0%);stop-opacity:0;"/>
</radialGradient>
<linearGradient id="linear0" gradientUnits="userSpaceOnUse" x1="255.323059" y1="233.5" x2="255.323044" y2="254.666656" gradientTransform="matrix(0.0133601,0,0,0.062506,12.465386,13.438784)">
<stop offset="0" style="stop-color:rgb(0%,0%,0%);stop-opacity:0.27451;"/>
<stop offset="1" style="stop-color:rgb(0%,0%,0%);stop-opacity:0;"/>
</linearGradient>
<linearGradient id="linear1" gradientUnits="userSpaceOnUse" x1="254" y1="-168.666672" x2="254" y2="233.5" >
<stop offset="0" style="stop-color:rgb(100%,54.11765%,39.607844%);stop-opacity:1;"/>
<stop offset="1" style="stop-color:rgb(100%,43.921569%,26.274511%);stop-opacity:1;"/>
</linearGradient>
<linearGradient id="linear2" gradientUnits="userSpaceOnUse" x1="254" y1="-168.666672" x2="254" y2="233.5" gradientTransform="matrix(0.0493468,0,0,0.0493468,3.342423,13.865359)">
<stop offset="0" style="stop-color:rgb(100%,83.529413%,30.980393%);stop-opacity:1;"/>
<stop offset="1" style="stop-color:rgb(100%,79.215688%,15.686275%);stop-opacity:1;"/>
</linearGradient>
<linearGradient id="linear3" gradientUnits="userSpaceOnUse" x1="254" y1="85.333336" x2="254" y2="-94.583336" gradientTransform="matrix(1,0,0,1,-11.906255,41.904667)">
<stop offset="0" style="stop-color:rgb(87.843138%,87.843138%,87.843138%);stop-opacity:1;"/>
<stop offset="1" style="stop-color:rgb(98.039216%,98.039216%,98.039216%);stop-opacity:1;"/>
</linearGradient>
</defs>
<g id="surface1">
<path style=" stroke:none;fill-rule:nonzero;fill:url(#radial0);" d="M 18.191406 28.035156 L 20.839844 28.035156 L 20.839844 26.710938 L 18.191406 26.710938 Z M 18.191406 28.035156 "/>
<path style=" stroke:none;fill-rule:nonzero;fill:url(#radial1);" d="M 13.5625 28.035156 L 10.914062 28.035156 L 10.914062 29.355469 L 13.5625 29.355469 Z M 13.5625 28.035156 "/>
<path style=" stroke:none;fill-rule:nonzero;fill:url(#radial2);" d="M 13.5625 28.035156 L 10.914062 28.035156 L 10.914062 26.710938 L 13.5625 26.710938 Z M 13.5625 28.035156 "/>
<path style=" stroke:none;fill-rule:nonzero;fill:url(#radial3);" d="M 18.191406 28.035156 L 20.839844 28.035156 L 20.839844 29.355469 L 18.191406 29.355469 Z M 18.191406 28.035156 "/>
<path style=" stroke:none;fill-rule:nonzero;fill:url(#linear0);" d="M 13.5625 27.703125 L 18.191406 27.703125 L 18.191406 29.355469 L 13.5625 29.355469 Z M 13.5625 27.703125 "/>
<path style="fill-rule:nonzero;fill:url(#linear1);stroke-width:3;stroke-linecap:round;stroke-linejoin:miter;stroke:rgb(20%,20%,20%);stroke-opacity:1;stroke-miterlimit:4;" d="M 253.975747 -168.691922 C 365.027642 -168.691922 455.081542 -78.638022 455.081542 32.413873 C 455.081542 143.465768 365.027642 233.519669 253.975747 233.519669 C 142.923851 233.519669 52.932445 143.465768 52.932445 32.413873 C 52.932445 -78.638022 142.923851 -168.691922 253.975747 -168.691922 Z M 253.975747 -168.691922 " transform="matrix(0.062506,0,0,0.062506,0,13.438783)"/>
<path style=" stroke:none;fill-rule:nonzero;fill:rgb(0%,0%,0%);fill-opacity:0.196078;" d="M 15.875 28.035156 C 8.914062 28.035156 3.308594 22.429688 3.308594 15.464844 C 3.308594 15.425781 3.308594 15.382812 3.308594 15.34375 C 3.375 22.246094 8.953125 27.789062 15.875 27.789062 C 22.796875 27.789062 28.378906 22.246094 28.445312 15.34375 C 28.445312 15.382812 28.445312 15.425781 28.445312 15.464844 C 28.445312 22.429688 22.839844 28.035156 15.875 28.035156 Z M 15.875 28.035156 "/>
<path style=" stroke:none;fill-rule:nonzero;fill:rgb(100%,100%,100%);fill-opacity:0.392157;" d="M 15.875 2.894531 C 8.914062 2.894531 3.308594 8.5 3.308594 15.464844 C 3.308594 15.507812 3.308594 15.546875 3.308594 15.589844 C 3.375 8.683594 8.953125 3.140625 15.875 3.140625 C 22.796875 3.140625 28.378906 8.683594 28.445312 15.589844 C 28.445312 15.546875 28.445312 15.507812 28.445312 15.464844 C 28.445312 8.5 22.839844 2.894531 15.875 2.894531 Z M 15.875 2.894531 "/>
<path style=" stroke:none;fill-rule:nonzero;fill:rgb(12.941177%,12.941177%,12.941177%);fill-opacity:1;" d="M 15.875 2.800781 C 8.863281 2.800781 3.214844 8.453125 3.214844 15.464844 C 3.214844 22.476562 8.863281 28.128906 15.875 28.128906 C 22.890625 28.128906 28.539062 22.476562 28.539062 15.464844 C 28.539062 8.453125 22.890625 2.800781 15.875 2.800781 Z M 15.875 2.988281 C 22.789062 2.988281 28.351562 8.550781 28.351562 15.464844 C 28.351562 22.378906 22.789062 27.941406 15.875 27.941406 C 8.964844 27.941406 3.402344 22.378906 3.402344 15.464844 C 3.402344 8.550781 8.964844 2.988281 15.875 2.988281 Z M 15.875 2.988281 "/>
<path style=" stroke:none;fill-rule:nonzero;fill:url(#linear2);" d="M 15.875 5.542969 C 21.355469 5.542969 25.800781 9.984375 25.800781 15.464844 C 25.800781 20.945312 21.355469 25.386719 15.875 25.386719 C 10.394531 25.386719 5.953125 20.945312 5.953125 15.464844 C 5.953125 9.984375 10.394531 5.542969 15.875 5.542969 Z M 15.875 5.542969 "/>
<path style="fill-rule:nonzero;fill:url(#linear3);stroke-width:3;stroke-linecap:round;stroke-linejoin:miter;stroke:rgb(80.000001%,80.000001%,80.000001%);stroke-opacity:1;stroke-miterlimit:4;" d="M 210.354912 -53.077963 C 198.606034 -53.077963 189.169435 -43.641364 189.169435 -31.95498 L 189.169435 106.031843 C 189.169435 117.780721 198.606034 127.21732 210.354912 127.21732 C 220.916404 127.21732 307.34565 69.285352 355.841019 39.913157 C 363.777761 34.663658 363.777761 29.351666 355.841019 24.039673 C 307.34565 -1.645374 226.228396 -52.702999 210.354912 -53.077963 Z M 210.354912 -53.077963 " transform="matrix(0.062506,0,0,0.062506,0,13.438783)"/>
<path style=" stroke:none;fill-rule:nonzero;fill:rgb(100%,100%,100%);fill-opacity:0.996774;" d="M 13.148438 10.121094 C 12.414062 10.121094 11.824219 10.710938 11.824219 11.441406 L 11.824219 11.71875 C 11.824219 10.984375 12.414062 10.394531 13.148438 10.394531 C 14.140625 10.421875 19.210938 13.609375 22.242188 15.21875 C 22.421875 15.335938 22.539062 15.457031 22.585938 15.574219 C 22.675781 15.363281 22.558594 15.152344 22.242188 14.941406 C 19.210938 13.335938 14.140625 10.144531 13.148438 10.121094 Z M 13.148438 10.121094 "/>
<path style=" stroke:none;fill-rule:nonzero;fill:rgb(12.941177%,12.941177%,12.941177%);fill-opacity:1;" d="M 13.148438 10.027344 C 12.363281 10.027344 11.730469 10.660156 11.730469 11.441406 L 11.730469 20.066406 C 11.730469 20.851562 12.363281 21.484375 13.148438 21.484375 C 13.273438 21.484375 13.421875 21.421875 13.644531 21.316406 C 13.863281 21.210938 14.144531 21.0625 14.46875 20.878906 C 15.117188 20.507812 15.949219 19.996094 16.855469 19.429688 C 18.667969 18.292969 20.777344 16.929688 22.292969 16.015625 L 22.292969 16.011719 L 22.296875 16.011719 C 22.554688 15.839844 22.710938 15.652344 22.710938 15.4375 C 22.710938 15.226562 22.554688 15.039062 22.296875 14.863281 L 22.292969 14.863281 L 22.289062 14.859375 C 20.773438 14.058594 18.75 12.859375 16.976562 11.855469 C 16.089844 11.355469 15.269531 10.902344 14.601562 10.574219 C 14.269531 10.410156 13.976562 10.273438 13.734375 10.179688 C 13.488281 10.085938 13.296875 10.03125 13.148438 10.027344 Z M 13.144531 10.214844 C 13.246094 10.214844 13.429688 10.265625 13.664062 10.355469 C 13.902344 10.445312 14.191406 10.578125 14.519531 10.742188 C 15.179688 11.070312 16 11.519531 16.882812 12.019531 C 18.652344 13.019531 20.671875 14.214844 22.191406 15.019531 C 22.425781 15.179688 22.523438 15.320312 22.523438 15.4375 C 22.523438 15.558594 22.425781 15.699219 22.191406 15.855469 C 20.671875 16.773438 18.566406 18.136719 16.757812 19.269531 C 15.851562 19.839844 15.019531 20.347656 14.375 20.714844 C 14.054688 20.898438 13.777344 21.046875 13.5625 21.144531 C 13.351562 21.246094 13.1875 21.296875 13.148438 21.296875 C 12.464844 21.296875 11.917969 20.75 11.917969 20.066406 L 11.917969 11.441406 C 11.917969 10.761719 12.464844 10.214844 13.144531 10.214844 Z M 13.144531 10.214844 "/>
<path style=" stroke:none;fill-rule:nonzero;fill:rgb(0%,0%,0%);fill-opacity:0.235294;" d="M 15.875 5.625 C 10.378906 5.625 5.953125 10.050781 5.953125 15.546875 C 5.953125 15.628906 5.953125 15.707031 5.957031 15.785156 C 6.09375 10.410156 10.464844 6.121094 15.875 6.121094 C 21.289062 6.121094 25.660156 10.410156 25.796875 15.785156 C 25.796875 15.707031 25.800781 15.628906 25.800781 15.546875 C 25.800781 10.050781 21.375 5.625 15.875 5.625 Z M 15.875 5.625 "/>
<path style=" stroke:none;fill-rule:nonzero;fill:rgb(100%,100%,100%);fill-opacity:0.392157;" d="M 5.960938 15.796875 C 5.957031 15.90625 5.953125 16.015625 5.953125 16.125 C 5.953125 21.625 10.378906 26.050781 15.875 26.050781 C 21.375 26.050781 25.800781 21.625 25.800781 16.125 C 25.800781 16.015625 25.796875 15.90625 25.792969 15.796875 C 25.621094 21.136719 21.261719 25.386719 15.875 25.386719 C 10.488281 25.386719 6.132812 21.136719 5.960938 15.796875 Z M 5.960938 15.796875 "/>
<path style="fill:none;stroke-width:3;stroke-linecap:round;stroke-linejoin:miter;stroke:rgb(20%,20%,20%);stroke-opacity:1;stroke-miterlimit:4;" d="M 253.975747 -126.320968 C 341.654874 -126.320968 412.773082 -55.265254 412.773082 32.413873 C 412.773082 120.093 341.654874 191.148715 253.975747 191.148715 C 166.296619 191.148715 95.240905 120.093 95.240905 32.413873 C 95.240905 -55.265254 166.296619 -126.320968 253.975747 -126.320968 Z M 253.975747 -126.320968 " transform="matrix(0.062506,0,0,0.062506,0,13.438783)"/>
<path style=" stroke:none;fill-rule:nonzero;fill:rgb(0%,0%,0%);fill-opacity:0.235294;" d="M 22.4375 15.78125 C 22.382812 15.832031 22.320312 15.882812 22.242188 15.933594 C 19.210938 17.769531 13.808594 21.390625 13.148438 21.390625 C 12.414062 21.390625 11.824219 20.800781 11.824219 20.066406 L 11.824219 20.753906 C 11.824219 21.488281 12.414062 22.078125 13.148438 22.078125 C 13.808594 22.082031 19.210938 18.457031 22.242188 16.621094 C 22.664062 16.34375 22.726562 16.0625 22.4375 15.78125 Z M 22.4375 15.78125 "/>
</g>
</svg>
